apps/24/abiword.svg

<?xml version="1.0" encoding="UTF-8" standalone="no"?>
<!-- Created with Inkscape (http://www.inkscape.org/) -->

<svg
   xmlns:dc="http://purl.org/dc/elements/1.1/"
   xmlns:cc="http://creativecommons.org/ns#"
   xmlns:rdf="http://www.w3.org/1999/02/22-rdf-syntax-ns#"
   xmlns:svg="http://www.w3.org/2000/svg"
   xmlns="http://www.w3.org/2000/svg"
   xmlns:sodipodi="http://sodipodi.sourceforge.net/DTD/sodipodi-0.dtd"
   xmlns:inkscape="http://www.inkscape.org/namespaces/inkscape"
   version="1.1"
   width="24"
   height="24"
   id="svg2"
   inkscape:version="0.48.3.1 r9886"
   sodipodi:docname="abiword.svg">
  <sodipodi:namedview
     pagecolor="#ffffff"
     bordercolor="#666666"
     borderopacity="1"
     objecttolerance="10"
     gridtolerance="10"
     guidetolerance="10"
     inkscape:pageopacity="0"
     inkscape:pageshadow="2"
     inkscape:window-width="1920"
     inkscape:window-height="1033"
     id="namedview6"
     showgrid="true"
     inkscape:zoom="29.5"
     inkscape:cx="11.684022"
     inkscape:cy="11.121771"
     inkscape:window-x="-10"
     inkscape:window-y="25"
     inkscape:window-maximized="1"
     inkscape:current-layer="svg2"
     inkscape:snap-global="false">
    <inkscape:grid
       type="xygrid"
       id="grid2982"
       empspacing="5"
       visible="true"
       enabled="true"
       snapvisiblegridlinesonly="true" />
  </sodipodi:namedview>
  <defs
     id="defs4" />
  <metadata
     id="metadata7">
    <rdf:RDF>
      <cc:Work
         rdf:about="">
        <dc:format>image/svg+xml</dc:format>
        <dc:type
           rdf:resource="http://purl.org/dc/dcmitype/StillImage" />
        <dc:title />
      </cc:Work>
    </rdf:RDF>
  </metadata>
  <path
     sodipodi:nodetypes="ccccccccc"
     inkscape:connector-curvature="0"
     id="path2983"
     d="M 12.120744,3.9860881 C 9.5356039,4.0453665 3.9974391,15.173738 4.0069891,19.028717 c 0.057257,1.017489 1.0962452,0.954027 1.7832426,0.985234 4.5513693,-0.949841 10.6328293,-4.97289 10.8331993,-5.283053 0,0 -8.8431675,2.893741 -9.3441044,1.948957 C 6.7664017,15.713102 10.543927,7.4483619 12.132617,7.4870667 13.692669,7.5236788 20.011591,19.52142 20.011591,19.52142 19.949578,16.664055 18.609336,12.7695 16.980079,9.582267 15.350819,6.3957335 13.413551,3.9543572 12.120744,3.9860881 z"
     style="color:#000000;fill:#27303a;fill-opacity:0.753280819999999968;fill-rule:nonzero;stroke:none;stroke-width:1;marker:none;visibility:visible;display:inline;overflow:visible;enable-background:accumulate" />
  <path
     style="font-size:medium;font-style:normal;font-variant:normal;font-weight:normal;font-stretch:normal;text-indent:0;text-align:start;text-decoration:none;line-height:normal;letter-spacing:normal;word-spacing:normal;text-transform:none;direction:ltr;block-progression:tb;writing-mode:lr-tb;text-anchor:start;baseline-shift:baseline;color:#000000;fill:#f1f3f5;fill-opacity:0.90288714000000003;fill-rule:nonzero;stroke:none;stroke-width:2;marker:none;visibility:visible;display:inline;overflow:visible;enable-background:accumulate;font-family:Sans;-inkscape-font-specification:Sans"
     d="M 12.09375,2.78125 C 11.345381,2.79841 10.789208,3.1581247 10.28125,3.5625 9.7732918,3.9668753 9.2908311,4.4599152 8.8125,5.0625 7.8558378,6.2676696 6.9099157,7.8468305 6.03125,9.53125 c -0.8786657,1.684419 -1.668689,3.473161 -2.25,5.125 -0.581311,1.651839 -0.9718528,3.122502 -0.96875,4.375 a 1.20012,1.20012 0 0 0 0,0.0625 c 0.025792,0.458331 0.1729209,0.930856 0.46875,1.28125 0.2958291,0.350394 0.6784997,0.551244 1,0.65625 0.6430006,0.210011 1.1894825,0.174814 1.46875,0.1875 A 1.20012,1.20012 0 0 0 6.03125,21.1875 c 2.5027195,-0.522301 5.204868,-1.806038 7.375,-3 1.085066,-0.596981 2.053964,-1.172067 2.75,-1.625 0.242655,-0.157903 0.413127,-0.280152 0.59375,-0.40625 0.969508,1.736621 2.1875,3.9375 2.1875,3.9375 A 1.20012,1.20012 0 0 0 21.21875,19.5 C 21.149112,16.291309 19.750685,12.333762 18.0625,9.03125 17.216656,7.3769352 16.282696,5.9228827 15.34375,4.8125 14.404804,3.7021173 13.509542,2.7465005 12.09375,2.78125 z M 12.125,4 c 1.292807,-0.031731 3.21449,2.4072165 4.84375,5.59375 1.629257,3.187233 2.969237,7.080135 3.03125,9.9375 C 20,19.53125 13.685052,7.5366121 12.125,7.5 10.53631,7.4612952 6.7683251,15.720747 7.28125,16.6875 7.7821869,17.632284 16.625,14.71875 16.625,14.71875 16.42463,15.028913 10.332619,19.050159 5.78125,20 5.0942526,19.968793 4.057257,20.048739 4,19.03125 3.99045,15.176271 9.5398599,4.0592784 12.125,4 z m -0.03125,4.875 c 0.248545,0.2598121 0.593048,0.6958016 0.96875,1.21875 0.717945,0.999323 1.553928,2.371523 2.375,3.75 -0.599997,0.192393 -1.775559,0.578373 -3.59375,1.0625 -1.115307,0.296971 -2.2452735,0.561732 -3.0625,0.6875 -0.056094,0.0086 -0.071877,-0.0072 -0.125,0 C 8.695886,15.457932 8.697407,15.374757 8.75,15.21875 9.0328012,14.37988 9.4817797,13.298203 10,12.25 c 0.51822,-1.048203 1.088644,-2.085516 1.59375,-2.78125 0.196679,-0.2709051 0.356977,-0.4474632 0.5,-0.59375 z"
     id="path3823"
     inkscape:connector-curvature="0" />
</svg>

<?xml version="1.0" encoding="UTF-8"?>
<svg id="a" width="24" height="24" version="1.1" xmlns="http://www.w3.org/2000/svg" xmlns:cc="http://creativecommons.org/ns#" xmlns:dc="http://purl.org/dc/elements/1.1/" xmlns:rdf="http://www.w3.org/1999/02/22-rdf-syntax-ns#">
	<metadata id="c">
		<rdf:RDF>
			<cc:Work rdf:about="">
				<dc:format>image/svg+xml</dc:format>
				<dc:type rdf:resource="http://purl.org/dc/dcmitype/StillImage"/>
				<dc:title/>
			</cc:Work>
		</rdf:RDF>
	</metadata>
	<defs>
		<style id="current-color-scheme" type="text/css">.ColorScheme-Text {color:#090d11;}.ColorScheme-Background{color:#ffffff;}</style>
	</defs>
	<path id="d" d="m12.121 3.9861c-2.5851 0.059278-8.1233 11.188-8.1138 15.043 0.057257 1.0175 1.0962 0.95403 1.7832 0.98523 4.5514-0.94984 10.633-4.9729 10.833-5.2831 0 0-8.8432 2.8937-9.3441 1.949-0.51292-0.96675 3.2646-9.2315 4.8533-9.1928 1.5601 0.036612 7.879 12.034 7.879 12.034-0.062013-2.8574-1.4023-6.7519-3.0315-9.9392-1.6293-3.1865-3.5665-5.6279-4.8593-5.5962z" style="fill-opacity:.75;fill:currentColor" class="ColorScheme-Text"/>
	<path id="b" d="m12.094 2.7812c-0.74837 0.01716-1.3045 0.37687-1.8125 0.78125-0.50796 0.40438-0.99042 0.89742-1.4688 1.5-0.95666 1.2052-1.9026 2.7843-2.7812 4.4688-0.87867 1.6844-1.6687 3.4732-2.25 5.125s-0.97185 3.1225-0.96875 4.375a1.2001 1.2001 0 0 0 0 0.0625c0.025792 0.45833 0.17292 0.93086 0.46875 1.2812s0.6785 0.55124 1 0.65625c0.643 0.21001 1.1895 0.17481 1.4688 0.1875a1.2001 1.2001 0 0 0 0.28125 -0.03125c2.5027-0.5223 5.2049-1.806 7.375-3 1.0851-0.59698 2.054-1.1721 2.75-1.625 0.24266-0.1579 0.41313-0.28015 0.59375-0.40625 0.96951 1.7366 2.1875 3.9375 2.1875 3.9375a1.2001 1.2001 0 0 0 2.2812 -0.59375c-0.069638-3.2087-1.4681-7.1662-3.1562-10.469-0.84584-1.6543-1.7798-3.1084-2.7188-4.2188s-1.8342-2.066-3.25-2.0312zm0.03125 1.2188c1.2928-0.031731 3.2145 2.4072 4.8438 5.5938 1.6293 3.1872 2.9692 7.0801 3.0312 9.9375 0 0-6.3149-11.995-7.875-12.031-1.5887-0.038705-5.3567 8.2207-4.8438 9.1875 0.50094 0.94478 9.3438-1.9688 9.3438-1.9688-0.20037 0.31016-6.2924 4.3314-10.844 5.2812-0.687-0.031207-1.724 0.048739-1.7812-0.96875-0.00955-3.855 5.5399-14.972 8.125-15.031zm-0.03125 4.875c0.24854 0.25981 0.59305 0.6958 0.96875 1.2188 0.71794 0.99932 1.5539 2.3715 2.375 3.75-0.6 0.19239-1.7756 0.57837-3.5938 1.0625-1.1153 0.29697-2.2453 0.56173-3.0625 0.6875-0.056094 0.0086-0.071877-0.0072-0.125 0 0.039636-0.13582 0.041157-0.21899 0.09375-0.375 0.2828-0.83887 0.73178-1.9205 1.25-2.9688 0.51822-1.0482 1.0886-2.0855 1.5938-2.7812 0.19668-0.27091 0.35698-0.44746 0.5-0.59375z" style="fill-opacity:.5;fill:currentColor" class="ColorScheme-Background"/>
</svg>
